!!!OTL: Yingchuangwang bunaliang
!!!ARE: Asia, China,ÿHenan Wushe
!! IV, 121
!!!SCT: C1941
!!!YEM: Copyright 1995, estate of Helmut Schaffrath.
**kern
*ICvox
*Ivox
*M2/4
*k[b-]
*F:
{8a
16a
16cc
8f
16f
16g
=1
8.a
16g
4a
=2
8cc
4ff
16cc
16a
=3
16g
16a
16g
16f
4g}
=4
{8.g
16a
4cc
=5
8.dd
8ff
16cc
8a
=6
8g
16g
16f
8f
16f
16d
=7
2c}
=8
{8ff
16a
16g
8f
16f
16g
=9
8.a
16g
4a
=10
8a
16a
16cc
8g
8f
=11
8.d
16c
4d}
=12
{8.g
16a
8cc
16cc
16cc
=13
8.dd
16cc
8a
8g
=14
8f
4f
16cc
16a
=15
8.g
16a
16g
16f
8d
=16
2c}
==
!!!AGN: Xiaodiao
!!!AMT: simple duple
!!!AIN: vox
!!!EED: Helmut Schaffrath
!!!EEV: 1.0
*-
